**kern	**kern
*staff1	*staff2
*clefG2	*clefG2
*k[b-e-a-d-]	*k[b-e-a-d-]
*M2/4	*M2/4
*f:	*f:
8r	(8cJ
=309	=309
2r	8A-L
.	8FJ
.	8A-L
.	8cJ)
=310	=310
8r	4.B- 4.d-
(8eL 8ee	.
8fJ) 8ff	.
[8dd- [8ddd-	8A- 8c
=311	=311
8dd-L] 8ddd-]	(8GL 8B-
(8dd-'J 8ddd-'	8FJ 8A-
8dd-'L 8ddd-'	8EL 8G
8dd-'J) 8ddd-'	8FJ) 8A-
=312	=312
(8dd-L 8ddd-	4G 4B-
16bb-L	.
16ggJJ	.
8ee)	8r
8r	(8c
=313	=313
2r	8A-L
.	8FJ
.	8A-L
.	8cJ)
=314	=314
*	*^
8r	4.B- 4.d-	4r
(8eL 8ee	.	.
8fJ) 8ff	.	8r
[8ff [8fff	[8c	8A-
=315	=315	=315
8ff] 8fff]	8c]	4G
4ee- 4eee-	4c	.
.	.	4G
8dd 8ddd	8B	.
*	*v	*v
=316	=316
4cc 4ccc	(8CL
.	8E-J
4r	8A-L
.	8F#J)
=317	=317
8r	4.G
(8cc 8ee-	.
8ee-L 8gg	.
8fJ) 8b	8GG
=318	=318
4e- 4cc	(8CL
.	8E-J
4r	8A-L
.	8F#J)
=319	=319
8r	4.G
(8cc 8ee-	.
8ee-L 8gg	.
8fJ) 8b	8GG
=320	=320
4.e- 4.cc	4.C;
*-	*-
